assets/swan.svg

<svg id="emoji" viewBox="0 0 72 72" xmlns="http://www.w3.org/2000/svg">

  <path id="debug_frame_o" fill="#aaaaaa" stroke="#000000" stroke-width="0" d="M 0 0 h 72 v 72 h -72 z" />	

  <path id="debug_frame" fill="#ffffff" stroke="#000000" stroke-width="0" d="M 10.9 9.4 h 50.2 v 53.6 h -50.2 z" />	


  <g id="color">
  
  
    <path id="swan_body_fill" fill="#fedcba"
	d="M 23.8422 42.51
	   C 45.8722 29.944699999999997 48.0522 42.3547 51.3095 39.2008
	   C 52.3048 38.2371 59.9936 35.4447 59.9936 35.4447
	   S 57.2447 58.744699999999995 47.4045 60.3613
	   C 40.0266 61.5732 24.6803 62.5374 19.3688 60.3613
	   C 10.1888 56.6002 12.2039 44.0156 13.9732 39.8213
	   C 16.0284 34.9495 25.410800000000002 31.035400000000003 23.3087 20.5194
	   C 23.1233 19.5916 23.1112 18.4486 22.03 17.9894
	   C 20.5074 17.3423 17.55 21.2838 14.604000000000001 20.113599999999998
	   C 14.604000000000001 20.113599999999998 18.3957 11.370499999999998 21.5426 10.380299999999998
	   C 26.0607 8.958699999999999 29.4059 14.568199999999997 29.930500000000002 17.202099999999998
	   C 31.047800000000002 22.812099999999997 25.6397 31.215199999999996 25.134700000000002 35.302099999999996
	   C 25.1074 35.5222 23.8422 42.51 23.8422 42.51
	   Z"
	/>
	
    <path id="swan_beak" fill="#f4aa41"
	d="M 17.7632  15.7092 
	c  -.135  1.2855  1.933  2.4762  2.1626  3.2628
	.2953  1.0119 -4.1957 .4178 -4.1957 .4178 
	S 17.873  14.6637  17.7632  15.7092
	Z"/>
	
  </g>
  
  <g id="swan_border_line" fill="none" stroke="#000000" stroke-linecap="round" stroke-linejoin="round" stroke-width="2">
  
    <path id="swan_body_line"
	d="M 27.1986 41.0877 
	c 3.045 -.91 8.4833 -7.14 19.8118 -2.7989 8.2484 3.1606 12.9832 -2.8445 12.9832 -2.8445
	S 57.8916 57.793 47.4045 60.3609 
	c -7.2623 1.7782 -22.7242 2.1761 -28.0357 0 -9.18 -3.7611 -8.2246 -15.4921 -5.3956 -20.54 2.911 -5.1941 10.142 -8.5786 10.2681 -19.3019"/>
	
    <path id="swan_neck_line" 
	d="
	M 23.77 43.5077 
	c .71 -12.0817 7.0657 -20.416 6.1609 -26.3062 
	-.6954 -4.5273 -3.7741 -7.76 -8.2922 -6.3379 
	-3.1468 .99 -7.0343 9.2494 -7.0343 9.2494 
	2.9462 1.17 7.426 -2.1242 7.426 -2.1242
	"/>
	
    <path id="swan_feather_line" 
	d="M 49.6121 44.31 
	c -2.1331 3.4989 -11.9 5.3058 -16.6525 5.4247
	"/>
	
  </g>

</svg>

<svg id="emoji" viewBox="0 0 72 72" xmlns="http://www.w3.org/2000/svg">

  <path id="debug_frame_o" fill="#aaaaaa" stroke="#000000" stroke-width="0" d="M 0 0 h 72 v 72 h -72 z" />	

  <path id="debug_frame" fill="#ffffff" stroke="#000000" stroke-width="0" d="M 10.9 9.4 h 50.2 v 53.6 h -50.2 z" />	


  <g id="color">
  
  
    <path id="swan_body_fill" fill="#fedcba"
	d="M 23.8422  42.51 
	c 22.03  -12.5653 24.21  -.1553 27.4673  -3.3092
	.9953  -.9637 8.6841  -3.7561 8.6841  -3.7561 
	s  -2.7489 23.3  -12.5891 24.9166 
	c  -7.3779 1.2119 -22.7242  2.1761 -28.0357  0
	-9.18 -3.7611 -7.1649 -16.3457 -5.3956 -20.54 
	2.0552 -4.8718  11.4376 -8.7859  9.3355 -19.3019 
	-.1854 -.9278 -.1975 -2.0708 -1.2787 -2.53 
	-1.5226 -.6471 -4.48  3.2944 -7.426  2.1242 
	0  0  3.7917 -8.7431  6.9386 -9.7333 
	4.5181 -1.4216  7.8633  4.1879  8.3879  6.8218 
	1.1173  5.61 -4.2908  14.0131 -4.7958  18.1
	C 25.1074  35.5222  23.8422  42.51  23.8422  42.51
	Z"
	/>
	
    <path id="swan_beak" fill="#f4aa41"
	d="M 17.7632  15.7092 
	c  -.135  1.2855  1.933  2.4762  2.1626  3.2628
	.2953  1.0119 -4.1957 .4178 -4.1957 .4178 
	S 17.873  14.6637  17.7632  15.7092
	Z"/>
	
  </g>
  
  <g id="swan_border_line" fill="none" stroke="#000000" stroke-linecap="round" stroke-linejoin="round" stroke-width="2">
  
    <path id="swan_body_line"
	d="M 27.1986 41.0877 
	c 3.045 -.91 8.4833 -7.14 19.8118 -2.7989 8.2484 3.1606 12.9832 -2.8445 12.9832 -2.8445
	S 57.8916 57.793 47.4045 60.3609 
	c -7.2623 1.7782 -22.7242 2.1761 -28.0357 0 -9.18 -3.7611 -8.2246 -15.4921 -5.3956 -20.54 2.911 -5.1941 10.142 -8.5786 10.2681 -19.3019"/>
	
    <path id="swan_neck_line" 
	d="
	M 23.77 43.5077 
	c .71 -12.0817 7.0657 -20.416 6.1609 -26.3062 
	-.6954 -4.5273 -3.7741 -7.76 -8.2922 -6.3379 
	-3.1468 .99 -7.0343 9.2494 -7.0343 9.2494 
	2.9462 1.17 7.426 -2.1242 7.426 -2.1242
	"/>
	
    <path id="swan_feather_line" 
	d="M 49.6121 44.31 
	c -2.1331 3.4989 -11.9 5.3058 -16.6525 5.4247
	"/>
	
  </g>

</svg>
